X:1
T:Ninety-Nine Bottles of Beer
M:6/8
L:1/8
K:G
 GGG DDD| GGG G3| AAA EEE| A3- A2 G| FFF DDD| FFF FFE| DDD DEF| GGG G3|\
